X: 775
T: Shoucheng hao
L: 1/8
M: 2/4
K: Bb
bb2c' [I:setbarnb 1]| 
d' f' d' c' | 
d' c' d' c' | 
bb2g | 
bb2c' | 
d' f' d' c' | 
d' c' d' c' | 
b3g | 
f' d' f' d' | 
c' d'b2 | 
b g b g | 
b gf2 | 
b gf2 | 
f d' c' d' | 
f2f2 | 
g f d c | 
b b g c' | 
b4 |]

@@@ Tune index: 9649
